2019/site/resources/flags/dark_en_bw.svg

<?xml version="1.0" encoding="UTF-8" standalone="no"?><!DOCTYPE svg PUBLIC "-//W3C//DTD SVG 1.1//EN" "http://www.w3.org/Graphics/SVG/1.1/DTD/svg11.dtd"><svg width="100%" height="100%" viewBox="0 0 40 27" version="1.1" xmlns="http://www.w3.org/2000/svg" xmlns:xlink="http://www.w3.org/1999/xlink" xml:space="preserve" xmlns:serif="http://www.serif.com/" style="fill-rule:evenodd;clip-rule:evenodd;stroke-linejoin:round;stroke-miterlimit:2;"><path d="M17.556,26.25l-1.531,0l0,-7.743l-11.636,7.743l-1.225,0l12.861,-8.618l0,-0.657l-1.925,0l-12.919,8.696c-0.606,-0.485 -0.993,-1.23 -0.993,-2.065l0,-0.155l9.712,-6.476l-9.713,0l0.001,-1.531l17.368,0l0,10.806Zm22.007,-9.275l-9.713,0l9.713,6.476l0,0.155c0,0.229 -0.03,0.451 -0.085,0.663l-10.897,-7.294l-2.887,0l12.932,8.649c-0.461,0.391 -1.057,0.626 -1.707,0.626l-1.558,0l-11.636,-7.743l0,7.743l-1.531,0l0,-10.806l17.369,0l0,1.531Zm-23.538,-16.975l1.531,0l0,10.806l-17.369,0l0,-1.531l9.713,0l-9.713,-6.476l0,-0.155c0.001,-0.229 0.03,-0.451 0.085,-0.663l10.897,7.294l2.887,0l-12.932,-8.649c0.461,-0.391 1.057,-0.626 1.707,-0.626l1.558,0l11.636,7.743l0,-7.743Zm20.561,0l-12.861,8.618l0,0.657l1.925,0l12.919,-8.696c0.606,0.485 0.993,1.23 0.993,2.065l0,0.155l-9.712,6.476l9.713,0l0,1.531l-17.369,0l0,-10.806l1.531,0l0,7.743l11.636,-7.743l1.225,0Z" style="fill:#ededed;"/></svg>

<?xml version="1.0" encoding="UTF-8" standalone="no"?>
<!DOCTYPE svg PUBLIC "-//W3C//DTD SVG 1.1//EN" "http://www.w3.org/Graphics/SVG/1.1/DTD/svg11.dtd">
<svg width="100%" height="100%" viewBox="0 0 53 35" version="1.1" xmlns="http://www.w3.org/2000/svg" xmlns:xlink="http://www.w3.org/1999/xlink" xml:space="preserve" xmlns:serif="http://www.serif.com/" style="fill-rule:evenodd;clip-rule:evenodd;stroke-linejoin:round;stroke-miterlimit:2;">
    <g transform="matrix(1.33333,0,0,1.33333,1.19349e-14,2.95987e-16)">
        <path d="M17.556,26.25L16.025,26.25L16.025,18.507L4.389,26.25L3.164,26.25L16.025,17.632L16.025,16.975L14.1,16.975L1.181,25.671C0.575,25.186 0.188,24.441 0.188,23.606L0.188,23.451L9.9,16.975L0.187,16.975L0.188,15.444L17.556,15.444L17.556,26.25ZM39.563,16.975L29.85,16.975L39.563,23.451L39.563,23.606C39.563,23.835 39.533,24.057 39.478,24.269L28.581,16.975L25.694,16.975L38.626,25.624C38.165,26.015 37.569,26.25 36.919,26.25L35.361,26.25L23.725,18.507L23.725,26.25L22.194,26.25L22.194,15.444L39.563,15.444L39.563,16.975ZM16.025,0L17.556,0L17.556,10.806L0.187,10.806L0.187,9.275L9.9,9.275L0.187,2.799L0.187,2.644C0.188,2.415 0.217,2.193 0.272,1.981L11.169,9.275L14.056,9.275L1.124,0.626C1.585,0.235 2.181,-0 2.831,-0L4.389,-0L16.025,7.743L16.025,-0ZM36.586,0L23.725,8.618L23.725,9.275L25.65,9.275L38.569,0.579C39.175,1.064 39.562,1.809 39.562,2.644L39.562,2.799L29.85,9.275L39.563,9.275L39.563,10.806L22.194,10.806L22.194,0L23.725,0L23.725,7.743L35.361,0L36.586,0Z" style="fill:rgb(237,237,237);"/>
    </g>
</svg>
